X:1
T:Title
%%score { ( 1 3 ) | ( 2 4 ) }
L:1/8
Q:1/4=100
M:2/2
K:G
V:1 treble nm="Grand Piano"
V:3 treble 
V:2 bass 
V:4 bass 
V:1
 G3 G G2 G2 | [EG]2 [EG]2 [B,DG]4 | A3 A A2 [Fd]2 | B8 | B3 B B2 B2 | B2 B2 [^DB]4 | %6
w: James~McGranahan * * *||||||
 [E^c]3 [Ec] [Gc]2 [Ge]2 | [Fd]8 | [Fd]2 [Fc]2 [B,FB]2 [CFA]2 | [B,EG]2 [A,^DF]2 [G,E]4 | %10
w: ||||
 [Ec]2 [EB]2 [EA]2 [EG]2 | z4 F4[K:bass] | [^DA]3 [DA] [E^G]2 [EG]2 | [EA]2 [EB]2 c2 e2 | %14
w: ||||
 [Fe]3 [Fd] [Fd]2 [CDF]2 | [B,DG]8 |] %16
w: ||
V:2
 [G,B,D]3 [G,B,D] [E,B,E]2 [E,B,E]2 | [C,C]2 [C,C]2 G,,4 | %2
 [D,F,D]3 [F,A,D][K:treble] [A,DF]2 [D,D]2 | [G,DG]8 | [G,D]3 [G,D][K:bass] [F,A,^D]2 [F,A,D]2 | %5
 [E,G,E]2 [E,G,E]2 [B,,F,]4 | [A,,A,]3 [A,,A,] [A,,A,]2 [A,,A,]2 | [D,A,]8 | %8
 [D,A,]2 [D,A,]2 ^D,2 D,2 | E,2 B,,2 C,4 | [A,,A,]2 [B,,^G,]2 [C,A,]2 [^C,_B,]2 | B,4 z4 | %12
 [B,,F,]3 [B,,B,] [E,B,]2 [D,B,]2 | z4 .A,4 | [D,C]3 [D,C] [D,C]2 D,2 | G,,8 |] %16
V:3
 x8 | x8 | x8 | x8 | x8 | x8 | x8 | x8 | x8 | x8 | x8 | G4 z2[K:bass] C,2 | x8 | z4 E4 | x8 | x8 |] %16
V:4
 x8 | x8 | x4[K:treble] x4 | x8 | x4[K:bass] x4 | x8 | x8 | x8 | x8 | x8 | x8 | %11
 .[D,D]4- .[D,A,D]4 | x8 | [C,A,]2 [B,,^G,]2 A,,2- [A,,C]2 | x8 | x8 |] %16

